svg/OSM-icons/man_made #fabe0b °373737 !label=enman made,deKünstliches/22020;man_made=crane;!name=;[crane];!label=encrane,deKran.svg

<svg xmlns="http://www.w3.org/2000/svg" viewBox="0 0 580 580" enable-background="new 0 0 580 580"><path fill="#111" stroke="#eee" stroke-width="3.408" d="m66.28 1.768c-41.34 0-64.57 21.371-64.57 65.04v450.12c0 40.844 20.894 62.23 62.19 62.23h452.02c41.31 0 62.23-20.316 62.23-62.23v-450.12c0-42.601-20.923-65.04-63.52-65.04-.003 0-448.49-.143-448.35 0z"/><path fill="#fff" d="m512.25 341.86c-.484-1.885-1.427-3.53-2.674-4.853v-265.59c0-3.395-2.752-6.146-6.146-6.146-.752 0-1.47.142-2.136.389-2.526-3.749-6.793-6.142-11.521-6.142-.065 0-.132 0-.198.0001l-413.64 5.853c-7.52.106-13.591 6.174-13.703 13.693l-1.712 115.12c-.057 3.837 1.475 7.527 4.232 10.196 2.599 2.515 6.068 3.912 9.667 3.912.221 0 .442-.005.663-.016l54.621-2.605-57.47 298.27c-1.452 7.539 3.482 14.828 11.02 16.28.889.171 1.773.254 2.645.254 6.53 0 12.354-4.624 13.635-11.274l10.154-52.703 194.01-65.26 16.231 109.56c1.124 7.595 8.191 12.84 15.788 11.714 7.595-1.125 12.839-8.193 11.714-15.788l-47.791-322.58 195.83-88.05c.638-.287 1.237-.625 1.812-.994v249.24c-5.075 2.063-7.978 7.602-6.576 13.06 2.547 9.913 8.414 38.41 5.945 54.25-2.35.403-9.383.649-25.855-4.972-12.217-4.169-22.897-9.319-23-9.369-5.525-2.68-12.18-.374-14.859 5.154-2.68 5.526-.372 12.179 5.154 14.859.479.232 11.896 5.746 25.403 10.365 12.493 4.272 22.537 6.39 30.581 6.39 5.328 0 9.78-.93 13.483-2.777 5.671-2.83 9.466-7.816 10.686-14.04 4.546-23.19-4.903-61.14-5.995-65.39m-252.93-250.18l9.738 65.731-34.28 15.412-71.09 3.39 15.704-81.52 79.924-3.02m-170.78 88.12l1.291-86.82 61.751-.874-16.467 85.47-46.575 2.221m24.17 261.02l26.21-136.05 153.18 75.71-179.39 60.34m43.26-143.13l124.41-63.802 20.03 135.19-144.44-71.39m122.26-78.32l-136.33 69.911 16.371-84.969 80.46-3.837c1.74-.083 3.449-.492 5.04-1.207l29.515-13.271 4.944 33.373m17.17-73.8l-8.204-55.38 135.64-1.919-127.44 57.3"/></svg>

<?xml version="1.0" encoding="utf-8"?>
<!-- Generator: Adobe Illustrator 15.0.0, SVG Export Plug-In . SVG Version: 6.00 Build 0)  -->
<!DOCTYPE svg PUBLIC "-//W3C//DTD SVG 1.1//EN" "http://www.w3.org/Graphics/SVG/1.1/DTD/svg11.dtd">
<svg version="1.1" xmlns="http://www.w3.org/2000/svg" xmlns:xlink="http://www.w3.org/1999/xlink" x="0px" y="0px" width="580px"
	 height="580px" viewBox="0 0 580 580" enable-background="new 0 0 580 580" xml:space="preserve">
<g id="Layer_2">
	<g id="g1327">
		<path id="path1329" fill="#111111" stroke="#EEEEEE" stroke-width="3.408" d="M66.275,1.768
			c-41.335,0-64.571,21.371-64.571,65.036v450.123c0,40.844,20.894,62.229,62.192,62.229H515.92
			c41.307,0,62.229-20.316,62.229-62.229V66.804c0-42.601-20.923-65.036-63.522-65.036C514.624,1.768,66.133,1.625,66.275,1.768z"/>
	</g>
</g>
<g id="svg2" inkscape:output_extension="org.inkscape.output.svg.inkscape" inkscape:version="0.46" sodipodi:docname="waste_bin.svg" sodipodi:version="0.32" xmlns:inkscape="http://www.inkscape.org/namespaces/inkscape" xmlns:rdf="http://www.w3.org/1999/02/22-rdf-syntax-ns#" xmlns:svg="http://www.w3.org/2000/svg" xmlns:sodipodi="http://sodipodi.sourceforge.net/DTD/sodipodi-0.dtd" xmlns:cc="http://creativecommons.org/ns#" xmlns:dc="http://purl.org/dc/elements/1.1/">
	<path fill="#FFFFFF" d="M512.255,341.863c-0.484-1.885-1.427-3.53-2.674-4.853V71.42c0-3.395-2.752-6.146-6.146-6.146
		c-0.752,0-1.47,0.142-2.136,0.389c-2.526-3.749-6.793-6.142-11.521-6.142c-0.065,0-0.132,0-0.198,0.001L75.938,65.375
		c-7.52,0.106-13.591,6.174-13.703,13.693l-1.712,115.117c-0.057,3.837,1.475,7.527,4.232,10.196
		c2.599,2.515,6.068,3.912,9.667,3.912c0.221,0,0.442-0.005,0.663-0.016l54.621-2.605L72.24,503.945
		c-1.452,7.539,3.482,14.828,11.021,16.28c0.889,0.171,1.773,0.254,2.645,0.254c6.53,0,12.354-4.624,13.635-11.274l10.154-52.703
		l194.008-65.258l16.231,109.563c1.124,7.595,8.191,12.84,15.788,11.714c7.595-1.125,12.839-8.193,11.714-15.788l-47.791-322.584
		l195.831-88.048c0.638-0.287,1.237-0.625,1.812-0.994v249.236c-5.075,2.063-7.978,7.602-6.576,13.056
		c2.547,9.913,8.414,38.41,5.945,54.247c-2.35,0.403-9.383,0.649-25.855-4.972c-12.217-4.169-22.897-9.319-23-9.369
		c-5.525-2.68-12.18-0.374-14.859,5.154c-2.68,5.526-0.372,12.179,5.154,14.859c0.479,0.232,11.896,5.746,25.403,10.365
		c12.493,4.272,22.537,6.39,30.581,6.39c5.328,0,9.78-0.93,13.483-2.777c5.671-2.83,9.466-7.816,10.686-14.04
		C522.796,384.069,513.347,346.115,512.255,341.863z M259.324,91.686l9.738,65.731l-34.277,15.412l-71.089,3.39L179.4,94.702
		L259.324,91.686z M88.542,179.802l1.291-86.818l61.751-0.874l-16.467,85.471L88.542,179.802z M112.716,440.819l26.212-136.051
		l153.18,75.71L112.716,440.819z M155.978,297.689l124.413-63.802l20.028,135.191L155.978,297.689z M278.24,219.368l-136.328,69.911
		l16.371-84.969l80.459-3.837c1.74-0.083,3.449-0.492,5.039-1.207l29.515-13.271L278.24,219.368z M295.412,145.569l-8.204-55.378
		l135.641-1.919L295.412,145.569z"/>
</g>
</svg>
